X:1
T:Title
%%score { ( 1 3 4 ) | ( 2 5 ) }
L:1/8
Q:1/4=84
M:6/8
K:F
V:1 treble nm="Grand Piano"
V:3 treble 
V:4 treble 
V:2 bass 
V:5 bass 
V:1
 [DF]>[DF][DF] [DF][B,D][DF] | [Fd]>[E^c][Fd] [FB]3 | cBG cBG | z3 c3 | %4
w: Chas.~H.~Gabriel * * * * *||||
 [DF]>[DF][DF] [DF][B,D][DF] | [Fd]>[E^c][Fd] [FB]3 | [EB]>[EA]G cAF | [FA]>[FA][EG] F3 | .[Fd]6 | %9
w: |||||
 [DB]3 .F3 | [GB]>AB [Ac]B[B,_EG] | [DF]6 | A>AA AGA | B>BB [EB]AG | c3 z3 | c6[K:bass] | .[Fd]6 | %17
w: ||||||||
 [DB]3 .F3 | [GB]>AB [Ac]B[B,_EG] | [DF]6 | A>AA AG[FA] | [FB]>[FB][FB] [Gc][Gc][Gc] | d3 c2 c | %23
w: ||||||
 [DB]6 |] %24
w: |
V:2
 [B,,B,]>[B,,B,][B,,B,] [B,,B,][B,,F,][B,,B,] | [B,,B,]>[B,,B,][B,,B,] [D,B,]3 | %2
 [_E,G,_E][E,G,E][E,B,E] [E,G,E][E,G,E][E,B,E] | [D,B,][D,B,][B,,B,] .[F,A,F]3 | %4
 [B,,B,]>[B,,B,][B,,B,] [B,,B,][B,,F,][B,,B,] | [B,,B,]>[B,,B,][B,,B,] [D,B,]3 | %6
 [C,C]>[C,C][K:treble][B,CE] [A,CF][K:bass][F,CF][D,=B,] | [C,C]>[C,C][C,B,] [F,A,]3 | %8
 [B,,B,]>B,,B,, z E[B,,B,] | [B,,F,]>B,,B,, B,,C,D, | z z/[K:treble] ^F/G z G[K:bass]_E, | %11
 B,,>B,,B,, .B,,3 | [F,C_E]>[F,CE][F,CE] [F,CE][F,CE][F,CE] | %13
 [G,CE]>[G,CE][G,CE] [C,C][K:treble][CE][B,CE] | [A,F]2 B, [A,CF]2 [G,B,E] | [A,F]6 | %16
 [B,,B,]>B,,B,, z E[B,,B,] | [B,,F,]>B,,B,, B,,C,D, | z z/[K:treble] ^F/G z G[K:bass]_E, | %19
 B,,>B,,B,, .B,,3 | [F,C_E]>[F,CE][F,CE] [F,CE][F,CE][_E,C] | %21
 [D,B,]>[D,B,][D,B,] [_E,B,][E,B,][E,B,] | [F,B,F]3 [F,A,_E]2 [F,E] | [B,,F,]6 |] %24
V:3
 x6 | x6 | x6 | F[FB][Fd] z2 _E | x6 | x6 | x6 | x6 | z z/ B,/B, z ^c[Fd] | %9
 z z/ G,/A, [B,D][A,_E][B,F] | x6 | B,>B,B, .B,3 | x6 | x6 | z2 G c2 c | z[K:bass] G,F, _E,D,C, | %16
 z z/ B,/B, z ^c[Fd] | z z/ G,/A, [B,D][A,_E][B,F] | x6 | B,>B,B, .B,3 | x6 | x6 | x6 | x6 |] %24
V:4
 x6 | x6 | x6 | x6 | x6 | x6 | x6 | x6 | z3 .B,3 | x6 | x6 | x6 | x6 | x6 | x6 | x[K:bass] x5 | %16
 z3 .B,3 | x6 | x6 | x6 | x6 | x6 | x6 | x6 |] %24
V:5
 x6 | x6 | x6 | x6 | x6 | x6 | x2[K:treble] x2[K:bass] x2 | x6 | z3 .B,,3 | x6 | %10
 [_E,_E]3[K:treble] .[E,E]3[K:bass] | x6 | x6 | x4[K:treble] x2 | C3 z3 | .F,3 z3 | z3 .B,,3 | x6 | %18
 [_E,_E]3[K:treble] .[E,E]3[K:bass] | x6 | x6 | x6 | x6 | x6 |] %24

